X: 2043
T: Zeybeklerle Gezer Dağlar Başında
C: Şevki Bey
O: Turkey
F: http://compmusic.upf.edu/node/140
N: ussak--sarki--aksak--zeybeklerle_gezer--sevki_bey
N: makam= ussak
N: form= sarki
N: usul= aksak = 9/8
M: 9/8
L: 1/16
K: C _2/4B   
Q: 1/4=144
%%MIDI tuningsystem comma53
A3f e2d2 c2B2 A4 G2 | A2 GAB2 ABc2 Bcd6  | \
w:  ARANAĞME  |   | 
A3f e2d2 c2B2 A4 G2 | 
w:   | 
AB cde2 dccB BAA6  | A3f e2d2 c2B2 A4 G2 | \
w:   |  ARANAĞME  | 
A2 GAB2 ABc2 Bcd6  | 
w:   | 
A3f e2d2 c2B2 A4 G2 | AB cde2 dccB BAA6  | \
w:   |   | 
G4 A4 A4 d4 cB | 
w:  Zey bek ler le  ge  | 
cB A4 G2c2 {d}BAA4z2  | dccB c4 dccB c2d2 e2 | 
w:  zer  *  *  *  ge *  *  *  zer   |  dağ *  *  *  lar  dağ *  *  *  lar   | 
e3d{e}d2 edd4c2 B2A2  | G4 A4 A4 d4 cB | \
w:  ba *  *  şın *  *  da   SAZ  |  Zey bek ler le  ge  | 
cB A4 G2c2 {d}BAA4z2  | 
w:  zer  *  *  *  ge *  *  *  zer   | 
dccB c4 dccB c2d2 e2 | e3d{e}d2 edd4GA Bcd2  | 
w:  dağ *  *  *  lar  dağ *  *  *  lar   |  ba *  *  şın *  *  da   SAZ  | 
c3d d2d2 c2d2 cdef ed | dc cBBA ABc2 cBB6  | 
w:  E fe ci ğim_ e fe ci *  ğim   |  genç *  *  *  tir  *  *  *  genç *  *  tir   | 
z2Ge d2e2 c2d2 c2B2 BA | A6 efed dcd6  | \
w:  on_ üç_ on  dört  ya *  şın  |  da   SAZ  | 
c3d d2d2 c2d2 cdef ed | 
w:  E fe ci ğim_ e fe ci *  ğim   | 
dc cBBA ABc2 cBB6  | z2Ge d2e2 c2d2 c2B2 BA | 
w:  genç *  *  *  tir  *  *  *  genç *  *  tir   |  on_ üç_ on  dört  ya *  şın  | 
A6 g2^3/4f2 g2a6  | g2^3/4f2 g2a2 g2=f2 e2d2 e2 | \
w:  da   SAZ  |  Bu  gü zel lik  bu  gü zel *  lik   | 
c3Bc2 d2cB BAA4z2  | 
w:  ol *  maz  *  ol *  *  *  maz   | 
dccB c4 dccB c2d2 e2 | e3d{e}d2 edd4^3/4f2 g2a2  | 
w:  el *  *  *  mas  el *  *  *  mas   |  ta *  *  şın *  *  da   SAZ  | 
g2^3/4f2 g2a2 g2=f2 e2d2 e2 | c3Bc2 d2cB BAA4z2  | \
w:  Bu  gü zel lik  bu  gü zel *  lik   |  ol *  maz  *  ol *  *  *  maz   | 
dccB c4 dccB c2d2 e2 | 
w:  el *  *  *  mas  el *  *  *  mas   | 
e3d{e}d2 edd4GA Bcd2  | c3d d2d2 c2d2 cdef ed | 
w:  ta *  *  şın *  *  da   SAZ  |  E fe ci ğim_ e fe ci *  ğim   | 
dc cBBA ABc2 cBB6  | z2Ge d2e2 c2d2 c2B2 BA | 
w:  genç *  *  *  tir  *  *  *  genç *  *  tir   |  on_ üç_ on  dört  ya *  şın  | 
A6 efed dcd6  | c3d d2d2 c2d2 cdef ed | \
w:  da   SAZ  |  E fe ci ğim_ e fe ci *  ğim   | 
dc cBBA ABc2 cBB6  | 
w:  genç *  *  *  tir  *  *  *  genç *  *  tir   | 
z2Ge d2e2 c2d2 c2B2 BA | A6 dccB BAA6  | |


